X: 17395
T: High Road To Linton, The
R: reel
M: 4/4
K: Amajor
A2 ce a2 a2|fefg a2 a2|A2 ce a2 a2|faec B2 A2:|
ce e2 fd d2|ecAc dB B2|ce e2 fd d2|faec B2 A2:|

